static/logos/airbnb-glyph-color.svg

<svg width="47" height="50" viewBox="0 0 47 50" fill="none" xmlns="http://www.w3.org/2000/svg">
<g clip-path="url(#clip0_1_3601)">
<path d="M46.2463 35.5C45.9963 34.9 45.7463 34.25 45.4963 33.7C45.0963 32.8 44.6963 31.95 44.3463 31.15L44.2963 31.1C40.8463 23.6 37.1463 16 33.2463 8.5L33.0963 8.2C32.6963 7.45 32.2963 6.65 31.8963 5.85C31.3963 4.95 30.8963 4 30.0963 3.1C28.4963 1.1 26.1963 0 23.7463 0C21.2463 0 18.9963 1.1 17.3463 3C16.5963 3.9 16.0463 4.85 15.5463 5.75C15.1463 6.55 14.7463 7.35 14.3463 8.1L14.1963 8.4C10.3463 15.9 6.59634 23.5 3.14635 31L3.09635 31.1C2.74635 31.9 2.34635 32.75 1.94635 33.65C1.69635 34.2 1.44635 34.8 1.19635 35.45C0.546354 37.3 0.346355 39.05 0.596354 40.85C1.14635 44.6 3.64635 47.75 7.09634 49.15C8.39634 49.7 9.74634 49.95 11.1463 49.95C11.5463 49.95 12.0463 49.9 12.4463 49.85C14.0963 49.65 15.7963 49.1 17.4463 48.15C19.4963 47 21.4463 45.35 23.6463 42.95C25.8463 45.35 27.8463 47 29.8463 48.15C31.4963 49.1 33.1963 49.65 34.8463 49.85C35.2463 49.9 35.7463 49.95 36.1463 49.95C37.5463 49.95 38.9463 49.7 40.1963 49.15C43.6963 47.75 46.1463 44.55 46.6963 40.85C47.0963 39.1 46.8963 37.35 46.2463 35.5ZM23.6963 38.1C20.9963 34.7 19.2463 31.5 18.6463 28.8C18.3963 27.65 18.3463 26.65 18.4963 25.75C18.5963 24.95 18.8963 24.25 19.2963 23.65C20.2463 22.3 21.8463 21.45 23.6963 21.45C25.5463 21.45 27.1963 22.25 28.0963 23.65C28.4963 24.25 28.7963 24.95 28.8963 25.75C29.0463 26.65 28.9963 27.7 28.7463 28.8C28.1463 31.45 26.3963 34.65 23.6963 38.1ZM43.6463 40.45C43.2963 43.05 41.5463 45.3 39.0963 46.3C37.8963 46.8 36.5963 46.95 35.2963 46.8C34.0463 46.65 32.7963 46.25 31.4963 45.5C29.6963 44.5 27.8963 42.95 25.7963 40.65C29.0963 36.6 31.0963 32.9 31.8463 29.6C32.1963 28.05 32.2463 26.65 32.0963 25.35C31.8963 24.1 31.4463 22.95 30.7463 21.95C29.1963 19.7 26.5963 18.4 23.6963 18.4C20.7963 18.4 18.1963 19.75 16.6463 21.95C15.9463 22.95 15.4963 24.1 15.2963 25.35C15.0963 26.65 15.1463 28.1 15.5463 29.6C16.2963 32.9 18.3463 36.65 21.5963 40.7C19.5463 43 17.6963 44.55 15.8963 45.55C14.5963 46.3 13.3463 46.7 12.0963 46.85C10.7463 47 9.44634 46.8 8.29634 46.35C5.84634 45.35 4.09635 43.1 3.74635 40.5C3.59635 39.25 3.69635 38 4.19635 36.6C4.34635 36.1 4.59635 35.6 4.84635 35C5.19634 34.2 5.59634 33.35 5.99634 32.5L6.04634 32.4C9.49634 24.95 13.1963 17.35 17.0463 9.95L17.1963 9.65C17.5963 8.9 17.9963 8.1 18.3963 7.35C18.7963 6.55 19.2463 5.8 19.7963 5.15C20.8463 3.95 22.2463 3.3 23.7963 3.3C25.3463 3.3 26.7463 3.95 27.7963 5.15C28.3463 5.8 28.7963 6.55 29.1963 7.35C29.5963 8.1 29.9963 8.9 30.3963 9.65L30.5463 9.95C34.3463 17.4 38.0463 25 41.4963 32.45V32.5C41.8963 33.3 42.2463 34.2 42.6463 35C42.8963 35.6 43.1463 36.1 43.2963 36.6C43.6963 37.9 43.8463 39.15 43.6463 40.45Z" fill="#FF5A5F"/>
</g>
<defs>
<clipPath id="clip0_1_3601">
<rect width="47" height="50" fill="white"/>
</clipPath>
</defs>
</svg>

<svg xmlns="http://www.w3.org/2000/svg" width="60.16" height="64" fill="none" viewBox="0 0 47 50"><g clip-path="url(#a)"><path fill="#FF5A5F" d="M46.246 35.5c-.25-.6-.5-1.25-.75-1.8-.4-.9-.8-1.75-1.15-2.55l-.05-.05c-3.45-7.5-7.15-15.1-11.05-22.6l-.15-.3c-.4-.75-.8-1.55-1.2-2.35-.5-.9-1-1.85-1.8-2.75-1.6-2-3.9-3.1-6.35-3.1-2.5 0-4.75 1.1-6.4 3-.75.9-1.3 1.85-1.8 2.75-.4.8-.8 1.6-1.2 2.35l-.15.3c-3.85 7.5-7.6 15.1-11.05 22.6l-.05.1c-.35.8-.75 1.65-1.15 2.55-.25.55-.5 1.15-.75 1.8-.65 1.85-.85 3.6-.6 5.4.55 3.75 3.05 6.9 6.5 8.3 1.3.55 2.65.8 4.05.8.4 0 .9-.05 1.3-.1 1.65-.2 3.35-.75 5-1.7 2.05-1.15 4-2.8 6.2-5.2 2.2 2.4 4.2 4.05 6.2 5.2 1.65.95 3.35 1.5 5 1.7.4.05.9.1 1.3.1 1.4 0 2.8-.25 4.05-.8 3.5-1.4 5.95-4.6 6.5-8.3.4-1.75.2-3.5-.45-5.35Zm-22.55 2.6c-2.7-3.4-4.45-6.6-5.05-9.3-.25-1.15-.3-2.15-.15-3.05.1-.8.4-1.5.8-2.1.95-1.35 2.55-2.2 4.4-2.2 1.85 0 3.5.8 4.4 2.2.4.6.7 1.3.8 2.1.15.9.1 1.95-.15 3.05-.6 2.65-2.35 5.85-5.05 9.3Zm19.95 2.35c-.35 2.6-2.1 4.85-4.55 5.85-1.2.5-2.5.65-3.8.5-1.25-.15-2.5-.55-3.8-1.3-1.8-1-3.6-2.55-5.7-4.85 3.3-4.05 5.3-7.75 6.05-11.05.35-1.55.4-2.95.25-4.25-.2-1.25-.65-2.4-1.35-3.4-1.55-2.25-4.15-3.55-7.05-3.55-2.9 0-5.5 1.35-7.05 3.55-.7 1-1.15 2.15-1.35 3.4-.2 1.3-.15 2.75.25 4.25.75 3.3 2.8 7.05 6.05 11.1-2.05 2.3-3.9 3.85-5.7 4.85-1.3.75-2.55 1.15-3.8 1.3-1.35.15-2.65-.05-3.8-.5-2.45-1-4.2-3.25-4.55-5.85-.15-1.25-.05-2.5.45-3.9.15-.5.4-1 .65-1.6.35-.8.75-1.65 1.15-2.5l.05-.1c3.45-7.45 7.15-15.05 11-22.45l.15-.3c.4-.75.8-1.55 1.2-2.3.4-.8.85-1.55 1.4-2.2 1.05-1.2 2.45-1.85 4-1.85 1.55 0 2.95.65 4 1.85.55.65 1 1.4 1.4 2.2.4.75.8 1.55 1.2 2.3l.15.3c3.8 7.45 7.5 15.05 10.95 22.5v.05c.4.8.75 1.7 1.15 2.5.25.6.5 1.1.65 1.6.4 1.3.55 2.55.35 3.85Z"/></g><defs><clipPath id="a"><path fill="#fff" d="M0 0h47v50H0z"/></clipPath></defs></svg>
